X:1
T:Title
%%score { ( 1 4 ) | ( 2 3 ) }
L:1/8
Q:1/4=100
M:4/4
K:C
V:1 treble nm="Grand Piano"
V:4 treble 
V:2 bass 
V:3 bass 
V:1
 [EG]2 [EG]>[EG] [EG]2 [CE]>[EG] | [Ec]2 [Ec]>[Fd] [Ec]4 | %2
w: Charles~H.~Gabriel * * * * *||
 [CFA]2 [CAc]>[CFA] [CEG]2 [G,DF]>[G,CE] | B,4 (3z C^C (3DEF | [EG]2 [EG]>[EG] [EG]2 [CE]>[EG] | %5
w: |||
 [Ec]2 [Ec]>[Fd] [Ec]2 [Ec]2 | B>A Bc [^Fd]2 [Fc]>A | z4 (3^FG-[GA] (3Bcd | %8
w: |||
 [Ge]2 [Fd]2 [Ec]3 [GB] | [FA]>c [CGB]>[CFA] [CEG]4 | F-[Fd] [Fd]2 [EG][Ge] [Ge]2 | %11
w: |||
 f->[Gf] e->[Ge] (3:2:2z G2- G2 | [Ge]2 [Fd]2 [Ec]3 [GB] | [FA]>[Ac] [GB]>[FA] [EG]4 | %14
w: |||
 [FA]2 [Af]2 [Ge]2 [Fd]2 | [Ec]6 z2 |] %16
w: ||
V:2
 [C,C]2 [C,C]>[C,C] [C,C]2 [C,G,]>[C,C] | [C,G,]2 [C,G,]>[C,G,] G,2 C2 | F,2 F,>F, C,2 B,,>C, | %3
 z4 B,2 z2 | [C,C]2 [C,C]>[C,C] [C,C]2 [C,G,]>[C,C] | [C,G,]2 [C,G,]>[C,G,] [C,G,]2 [C,G,]2 | %6
 [D,G,D]>[D,^F,D] [D,G,D][D,A,D] [D,A,]2 [D,A,]>[D,CD] | [G,B,D]6 z2 | %8
 [C,C]2 [C,G,]2 [C,G,]3 [E,C] | [F,C]2 z2 z4 | z G, [B,,G,]2 [C,C]2 [C,C]2 | %11
 z4[K:treble] z2 (3Bcd | [C,C]2 [C,G,]2 [C,G,]3 [E,C] | [F,C]2 [F,C]>[F,C] [C,C]4 | %14
 [F,C]2 [F,C]2 [G,C]2 [G,B,]2 | [C,G,C]6 z2 |] %16
V:3
 x8 | z4 C,4 | x8 | G,,6 z2 | x8 | x8 | x8 | x8 | x8 | z z/ A/ F,>F, C,4 | B,,2 z2 z4 | %11
 [D,B,]>[D,B,] [C,C]>[E,C][K:treble] (3[G,-B,-G][G,B,]-[G,-B,-A] [G,B,]2 | x8 | x8 | x8 | x8 |] %16
V:4
 x8 | x8 | x8 | [G,D]6 z2 | x8 | x8 | x8 | G6 z2 | x8 | x8 | .[DG]2 z2 z4 | G2 G2 d4 | x8 | x8 | %14
 x8 | x8 |] %16

